X:1
T:Title
%%score { ( 1 4 ) | ( 2 3 ) }
L:1/8
Q:1/4=110
M:4/4
K:C
V:1 bass nm="Grand Piano"
V:4 bass 
V:2 bass 
V:3 bass 
V:1
 [E,G,C]2 [E,A,CE]2[K:treble] [G,CG]2 [G,CG]2 | [A,CFA]2 [A,CFA]2 [G,CEG]4 | %2
w: C.~Harold~Lowden * * *||
 [G,CEG]2 [A,CEA]B [CEAc]2 [D^FAd]2 | [GBd]2 [Bdg]>[Bdg] [Bdg]2 [Bdg]2 | %4
w: ||
 [E,G,C]2 [E,A,CE]2[K:treble] [G,CG]2 [G,CG]2 | [A,CFA]2 [A,CFA]2 [G,CEG]4 | %6
w: ||
 [CEGc]2 [EAce]2 [^FAd]4 | G2- [B,DG-]>[B,DG-] [B,DG]2 [B,D]2 | %8
w: ||
 [G,CEG]2 [G,CEG]2 [A,CFA]2 [A,CFA]2 | [A,D^FA]2 [A,DFA]2 [B,DGB]4 | %10
w: ||
 [B,E^GB]2 [B,EGB]2 [CEAc]2 [CE=Gc]2 | [C^FAc]2 [EFAd]2 [Gd]4 | [EGe]2 [CEc]2 [B,DGd]4 | %13
w: |||
 [EGe]2 [cec']>[cec'] [cec']2 [cec']2 | [EGe]2 [CEc]2 [B,FGd]4 | %15
w: ||
 c2- [c-egc']>[c-egc'] [cegc']2 [egc']2 |] %16
w: |
V:2
 C,2 A,,2 E,,2 E,,2 | F,,G,,A,,B,, C,4 | C,2 z B, A,,2 D,,2 | %3
 G,,2[K:treble] [G,B,DG]>[G,B,DG] [G,B,DG]2 [G,B,DG]2 | C,2 A,,2 E,,2 E,,2 | F,,G,,A,,B,, C,4 | %6
 C,2 A,2 z2 C2 | G,,2 G,>G, G,2 G,2 | C,2 E,2 F,2 F,2 | D,2 ^F,2 G,4 | E,2 ^G,2 A,2 A,2 | %11
 D,2 [D,C]2 [G,,B,D]4 | [C,C]2 [A,,A,]2 [G,,G,]4 | C2[K:treble] [CEG]>[CEG] [CEG]2 [CEG]2 | %14
 [C,C]2 [A,,A,]2 G,,4 | z2[K:treble] [CEG]>[CEG] [CEG]2 [CEG]2 |] %16
V:3
 x8 | x8 | z2 B,,2 z4 | x2[K:treble] x6 | x8 | x8 | z4 D,4 | x8 | x8 | x8 | x8 | x8 | x8 | %13
 C,6[K:treble] z2 | x8 | C,6[K:treble] z2 |] %16
V:4
 x4[K:treble] x4 | x8 | x8 | x8 | x4[K:treble] x4 | x8 | z4 D2 z2 | [G,B,D]2 z2 z4 | x8 | x8 | x8 | %11
 x8 | x8 | x8 | x8 | [CEG]2 z2 z4 |] %16

